X:320
T: ANKE VON THARAU OESS DE MY GEFOELLT
N: B0376B
O: Europa, Mitteleuropa, Deutschland
R: Liebes - Lied, Liebes - Lust
M: 3/2
L: 1/4
K: C
 | G2G2D2 | E2E2D2 | C2CDE2 | D4-D2
G2G2D2 | E2E2D2 | C2CDE2 | D4-D2
E2E2F2 | G2G2F2 | E2DCDE | C4-C2

